!!!!SEGMENT: pl-wn--mus-iii-102-583_wieniawski-henryk--chanson-polonais-op-12-no-2.krn
!!!cenid: 18xx:3797
!!!COM: Wieniawski, Henryk
!!!COM-rismID: pe137176
!!!CDT: 1835/07/10-1880/03/31
!!!CNT:
!!!OTL: Chanson polonais op. 12 no. 2
!!!PDT:
!!!AGN:
!!!SMS-siglum: PL-Wn
!!!SMS-shelfmark: Mus.III.102.583
!!!SMS-shelfwork: W
!!!SMS-variant:
!!!SMS-altvar:
!!!NIFC-rismSourceID:
!!!NIFC-rismChildID:
!!!NIFC-islandoraID: none
!!!URL-pdf-islandora:
!!!URL-scan: https://polona.pl/item/chanson-polonais-op-12-no-2,NjgxNzcxMzA/1 @EN{Scan on Polona} @PL{Skany w portalu Polona}
!!!ONB-nifc:
!!!AIN: 1 piano 1 violn
!!!key: G
**kern	**kern	**dynam	**kern	**dynam
*part2	*part2	*part2	*part1	*part1
*staff3	*staff2	*	*staff1	*
*I"PIANO	*I"PIANO	*	*I"VIOLINO.	*
*Ipiano	*Ipiano	*	*Ivioln	*
*ICklav	*ICklav	*	*ICstr	*
*IGacmp	*IGacmp	*	*IGsolo	*
*clefF4	*clefG2	*	*clefG2	*
*k[b-e-]	*k[b-e-]	*	*k[b-e-]	*
*G:	*G:	*	*G:	*
*M3/4	*M3/4	*	*M3/4	*
=1	=1	=1	=1	=1
!!!OMD:
!!!OMD-mod: Andantino
*xywh-#2:336,850,2667,519	*xywh-#2:336,850,2667,519	*	*xywh-#2:346,198,2673,661	*
!	!LO:TX:B:t=Andantino.:mod=	!	!LO:TX:a:t=Andantino.:mod=	!
2.r	4r	.	2.r	.
.	4r	.	.	.
.	4dd\	p	.	.
=2	=2	=2	=2	=2
4C/	8.ee-\L	<	2.r	.
.	16ff\Jk	.	.	.
4e-\ 4c\ 4G\	4.gg\	.	.	.
4e-\ 4c\ 4G\	.	.	.	.
.	8ee-\	[	.	.
=3	=3	=3	=3	=3
.	16qqdd/LL	.	.	.
.	16qqee-/JJ	.	.	.
4GG/	8.dd\L	.	2.r	.
.	16cc#X\Jk	.	.	.
4B-\ 4G\ 4D\	4.dd\	.	.	.
4B-\ 4G\ 4D\	.	.	.	.
.	8b-\	.	.	.
=4	=4	=4	=4	=4
*	*^	*	*	*
(<[2.A\ 2.C\	8.an/L	2.e-\	.	2.r	.
.	[<16ee-/Jk	.	.	.	.
.	2ee-/]	.	.	.	.
=5	=5	=5	=5	=5	=5
2.A\] 2.D;\)	8.f#X/L	2.c\	.	2.r;	.
.	[<16dd/Jk	.	.	.	.
.	2dd;/]	.	.	.	.
*	*v	*v	*	*	*
=6	=6	=6	=6	=6
4GG/	4r	.	2.r	.
4r	4g/ 4d/ 4B-/	.	.	.
4r	4g/ 4d/ 4B-/	.	.	.
=7	=7	=7	=7	=7
4GG/	4r	.	4r	.
4r	4g/ 4d/ 4B-/	.	4r	.
4r	4g/ 4d/ 4B-/	.	4ddv\	p
=8	=8	=8	=8	=8
4C/	4r	.	(8.ee-'\L	.
.	.	.	16ff'\Jk)	.
4r	4g/ 4e-/ 4G/	.	(4.gg\	.
4r	4g/ 4e-/ 4G/	.	.	.
.	.	.	8ee-\)	.
!!LO:LB:g=original
=9	=9	=9	=9	=9
*xywh-#2:320,1637,2652,472	*xywh-#2:320,1637,2652,472	*	*xywh-#2:341,1370,2667,273	*
.	.	.	(16qqdd/LL	.
.	.	.	16qqee-/JJ	.
4GG/	4r	.	8.dd\L)	.
.	.	.	16cc#X\Jk	.
4r	4g/ 4d/ 4B-/	.	4.dd\	.
4r	4g/ 4d/ 4B-/	.	.	.
.	.	.	8b-\	.
=10	=10	=10	=10	=10
.	.	.	(16qqcc/LL	.
.	.	.	16qqdd/JJ	.
4D\	4r	.	8.cc\L)	.
.	.	.	16bn\Jk	.
4r	4f#X/ 4d/ 4c/	.	4cc\	.
4r	4f#/ 4d/ 4c/	.	4a/	.
=11	=11	=11	=11	=11
4GG/	4r	.	8.g/L	.
.	.	.	16b-/Jk	.
.	.	.	(8qb-/	.
4r	4g/ 4B-/	.	4ee-\)	.
4r	4g/ 4d/ 4B-/	.	4dd\	.
=12	=12	=12	=12	=12
4C/	4r	.	8.ee-\L	.
.	.	.	16ff\Jk	.
4r	4g/ 4e-/ 4G/	.	4.gg\	.
4r	4g/ 4e-/ 4G/	.	.	.
.	.	.	8ee-\	.
=13	=13	=13	=13	=13
.	.	.	(16qqdd/LL	.
.	.	.	16qqee-/JJ	.
4GG/	4r	.	8.dd\L)	.
.	.	.	16cc#X\Jk	.
4r	4g/ 4d/ 4B-/	.	4.dd\	.
4r	4g/ 4d/ 4B-/	.	.	.
.	.	.	8b-\	.
=14	=14	=14	=14	=14
4AA/	4r	.	8.g#X/L	.
.	.	.	16a/Jk	.
4r	4f/ 4d/ 4A/	.	(4ff\	.
4r	4g/ 4c#X/ 4A/	.	4een\)	.
=15	=15	=15	=15	=15
*	*^	*	*	*
!	!	!	!LO:HP:a	!	!
2.D\	4f/ 4A/	2d\	<	2.dd\	<[
.	2f#X/	.	[	.	.
.	.	(>8.c#X\L	.	.	.
.	.	16d\Jk)	.	.	.
*	*v	*v	*	*	*
=16	=16	=16	=16	=16
!	!	!	!	!LO:DY:rj
4C/	4r	mf	8.ee-\L	mf
.	.	.	16ff\Jk	.
4r	4g/ 4e-/ 4G/	.	4.gg\	.
4r	4g/ 4e-/ 4G/	.	.	.
.	.	.	8ee-\	.
!!LO:LB:g=original
=17	=17	=17	=17	=17
*xywh-#2:325,2367,2636,472	*xywh-#2:325,2367,2636,472	*	*xywh-#2:320,2110,2631,262	*
.	.	.	(16qqdd/LL	.
.	.	.	16qqee-/JJ	.
4GG/	4r	.	8.dd\L)	.
.	.	.	16cc#X\Jk	.
4r	4g/ 4d/ 4B-/	.	4.dd\	.
4r	4g/ 4d/ 4B-/	.	.	.
.	.	.	8b-\	.
=18	=18	=18	=18	=18
.	.	.	(16qqcc/LL	.
.	.	.	16qqdd/JJ	.
4D\	4r	.	8.cc\L)	.
.	.	.	16bn\Jk	.
4r	4f#X/ 4d/ 4c/	.	4cc\	.
4r	4f#/ 4d/ 4c/	.	4a/	.
=19	=19	=19	=19	=19
4GG/	4r	.	8.g/L	.
.	.	.	16b-/Jk	.
.	.	.	(8qb-/	.
4r	4g/ 4B-/	.	(4ee-\)	.
4r	4g/ 4d/ 4B-/	.	4dd\)	.
=20	=20	=20	=20	=20
4C/	4r	.	8.ee-\L	.
.	.	.	16ff\Jk	.
4r	4g/ 4e-/ 4G/	.	4.gg\	.
4r	4g/ 4e-/ 4G/	.	.	.
.	.	.	8ee-\	.
=21	=21	=21	=21	=21
.	.	.	(16qqdd/LL	.
.	.	.	16qqee-/JJ	.
4GG/	4r	.	8.dd\L)	.
.	.	.	16cc#X\Jk	.
4r	4g/ 4d/ 4B-/	.	4dd\	.
4r	4g/ 4d/ 4B-/	.	4b-\	.
=22	=22	=22	=22	=22
4AA/	4r	.	8.g#X/L	.
.	.	.	16a/Jk	.
4r	4f/ 4d/ 4A/	.	(4ff\	.
4r	4g/ 4c#X/ 4A/	.	4een\)	.
=23	=23	=23	=23	=23
2.D\	2.f/ 2.d/ 2.A/	>]	2.dd\	>]
=24	=24	=24	=24	=24
2.AA/ 2.DD/	4r	p	(8.dd#X'\L	p
.	.	.	16een'\Jk)	.
.	.	.	(8qee/	.
.	4g/ 4c#X/ 4A/	.	(4.aa\)	.
.	4g/ 4c#/ 4A/	.	.	.
.	.	.	8gg\)	.
!!LO:LB:g=original
=25	=25	=25	=25	=25
*xywh-#2:336,3082,2662,877	*xywh-#2:336,3082,2662,877	*	*xywh-#2:331,2830,2657,252	*
.	.	.	(16qqff/LL	.
.	.	.	16qqgg/JJ	.
2.AA/ 2.DD/	4r	.	8.ff\L)	.
.	.	.	16een\Jk	.
.	4f/ 4d/ 4A/	.	4ff\	.
.	4f/ 4d/ 4A/	.	4dd\	.
=26	=26	=26	=26	=26
.	.	.	(16qqcc#X/LL	.
.	.	.	16qqdd/JJ	.
2.AA/ 2.DD/	4r	.	8.cc#y\L)	.
.	.	.	16bn\Jk	.
.	4g/ 4en/ 4c#X/ 4A/	.	4cc#\	.
.	4g/ 4e/ 4c#/ 4A/	.	4a/	.
=27	=27	=27	=27	=27
2.AA/ 2.DD/	4r	<	8.dd\L	<
.	.	.	16ff\Jk	.
.	4f/ 4d/ 4A/	.	4bb-\	.
.	4f/ 4d/ 4A/	[[	4aa\	[[
=28	=28	=28	=28	=28
2.AA/ 2.DD/	4r	mf	8.dd#X\L	mf
.	.	.	16een\Jk	.
.	.	.	(8qee/	.
.	4g/ 4c#X/ 4A/	.	4.aa\)	.
.	4g/ 4c#/ 4A/	.	.	.
.	.	.	8gg\	.
=29	=29	=29	=29	=29
*	*^	*	*	*
.	.	.	.	(16qqff/LL	.
.	.	.	.	16qqgg/JJ	.
!	!	!	!LO:HP:a	!	!
2.AA/ 2.DD/	8.f^/L	4r	<	8.ff\L)	.
.	16g/Jk	.	.	16een\Jk	.
.	4.a/	4f\ 4d\ 4A\	.	4.ff\	.
.	.	4f\ 4d\ 4A\	.	.	.
.	8g/	.	[	8dd\	.
=30	=30	=30	=30	=30	=30
.	.	.	.	(16qqcc#X/LL	.
.	.	.	.	16qqdd/JJ	.
2.AA/ 2.DD/	8.en/L	4r	.	8.cc#y\L)	.
.	16d/Jk	.	.	16bn\Jk	.
.	4e/ 4A/ 4G/	2ryy	.	4cc#\	.
.	4g/ 4c#X/ 4A/	.	.	4a/	.
*	*v	*v	*	*	*
=31	=31	=31	=31	=31
4AA/ 4DD/	8f/L 8d/ 8A/	<	(2.dd\	<
.	(8d/	.	.	.
4r	8en/	.	.	.
.	8f/	.	.	.
4r	8g/	.	.	.
.	8g#X/J)	[[	.	.
!!LO:PB:g=original
=32	=32	=32	=32	=32
*	*^	*	*	*
*xywh-#3:258,527,2608,448	*xywh-#3:258,527,2608,448	*xywh-#3:258,527,2608,448	*	*xywh-#3:257,241,2608,285	*
2.C#X^>/	2.a^/	4r	.	(16dd#X\LL	.
.	.	.	.	16een\	.
.	.	.	.	16dd#\	.
.	.	.	.	16ee\JJ)	.
.	.	.	.	(8qee/	.
.	.	4g\ 4en\ 4A\	.	4.aa\)	.
.	.	4g\ 4e\ 4A\	.	.	.
.	.	.	.	8gg\)	[
=33	=33	=33	=33	=33	=33
.	.	.	.	(16qqff/LL	f
.	.	.	.	16qqgg/JJ	.
2.D^\	2.a^/	4r	f	8.ff\L)	.
.	.	.	.	16een\Jk	.
.	.	4f\ 4d\ 4A\	.	4ff\	.
.	.	4f\ 4d\ 4A\	.	4dd\	.
=34	=34	=34	=34	=34	=34
.	.	.	.	(16qqcc#X/LL	.
.	.	.	.	16qqdd/JJ	.
2.En^\	2.a^/	4r	.	8.cc#y\L)	.
.	.	.	.	16bn\Jk	.
.	.	4g\ 4c#X\ 4A\	.	4cc#\	.
.	.	4g\ 4c#\ 4A\	.	4a/	.
=35	=35	=35	=35	=35	=35
2.F^\	2.a^/	4r	.	8.dd\L	.
.	.	.	.	16ff\Jk	.
.	.	4f\ 4d\ 4A\	.	4bb-\	.
.	.	4f\ 4d\ 4A\	.	4aa\	.
=36	=36	=36	=36	=36	=36
2.G^\	2.b-X^/	4r	.	8.dd#X\L	.
.	.	.	.	16een\Jk	.
.	.	.	.	(8qee/	.
.	.	4en\ 4d\	.	4.aa\)	.
.	.	4e\ 4d\	.	.	.
.	.	.	.	8gg\	.
=37	=37	=37	=37	=37	=37
.	.	.	.	(16qqff/LL	.
.	.	.	.	16qqgg/JJ	.
2.A^\	2.a^/	4r	.	8.ff\L)	.
.	.	.	.	16een\Jk	.
.	.	4f\ 4d\	.	4ff\	.
.	.	4f\ 4d\	.	4dd\	.
=38	=38	=38	=38	=38	=38
2.AA^>/	2.a^/	4r	.	8.cc#Xt\L	.
.	.	.	.	16bn\Jk	.
.	.	4g\ 4en\ 4c#X\ 4A\	.	4cc#\	.
.	.	4g\ 4e\ 4c#\ 4A\	.	4a/	.
*	*v	*v	*	*	*
!!LO:LB:g=original
=39	=39	=39	=39	=39
*xywh-#3:226,1171,2693,433	*xywh-#3:226,1171,2693,433	*	*xywh-#3:221,970,2719,205	*
4D\	4a/ 4f#X/ 4d/ 4A/	.	8.dd\L	.
.	.	.	16ee-X\Jk	.
4r	4r	.	4gg\	.
4r	4r	.	8.ff#X\L	.
.	.	.	16ee-\Jk	.
=40	=40	=40	=40	=40
2.r	2.r	.	8.dd\L	.
.	.	.	16ee-X\Jk	.
.	.	.	4gg\	.
.	.	.	8.ff#X\L	.
.	.	.	16ee-\Jk	.
=41	=41	=41	=41	=41
2.r	2.r	.	8dd\L	.
.	.	.	8ee-\J	.
.	.	.	8gg\L	.
.	.	.	8ff#X\J	.
!	!	!	!LO:TX:i:t=pressez un peu:dur=10q:ext=ud:problem:text with extension lines:mod=	!
.	.	.	8ee-\L	.
.	.	.	8dd\J	.
=42	=42	=42	=42	=42
2.r	2.r	.	8ee-\L	.
.	.	.	8gg\J	.
.	.	.	8ff#X\L	.
.	.	.	8ee-\J	.
.	.	.	8dd\L	.
.	.	.	8ee-\J	.
=43	=43	=43	=43	=43
2.r	2.r	.	8gg\L	.
.	.	.	8ff#X\J	.
.	.	.	8ee-\L	.
.	.	.	8dd\J	.
.	.	.	8ee-\L	.
.	.	.	8gg\J	.
=44	=44	=44	=44	=44
2.r	2.r	.	8ff#X\L	>
.	.	.	8ee-\J	.
.	.	.	8dd\L	.
.	.	.	8cc#X\J	.
.	.	.	8.dd\L	.
.	.	.	16dd\Jk	]]
=45	=45	=45	=45	=45
!	!LO:TX:i:t=a tempo	!	!LO:TX:i:t=a tempo	!
4C/	4r	mf	8.ee-\L	mf
.	.	.	16ffn\Jk	.
4r	4g/ 4e-/ 4G/	.	4.gg\	.
4r	4g/ 4e-/ 4G/	.	.	.
.	.	.	8ee-\	.
!!LO:LB:g=original
=46	=46	=46	=46	=46
*xywh-#3:216,1784,2677,411	*xywh-#3:216,1784,2677,411	*	*xywh-#3:226,1599,2777,211	*
.	.	.	(16qqdd/LL	.
.	.	.	16qqee-/JJ	.
4GG/	4r	.	8.dd\L)	.
.	.	.	16cc#X\Jk	.
4r	4g/ 4d/ 4B-/	.	4.dd\	.
4r	4g/ 4d/ 4B-/	.	.	.
.	.	.	8b-\	.
=47	=47	=47	=47	=47
.	.	.	(16qqcc/LL	.
.	.	.	16qqdd/JJ	.
4D\	4r	.	8.cc\L)	.
.	.	.	16bn\Jk	.
4r	4f#X/ 4d/ 4c/	.	4cc\	.
4r	4f#/ 4d/ 4c/	.	4a/	.
=48	=48	=48	=48	=48
4GG/	4r	.	8.g/L	.
.	.	.	16b-/Jk	.
.	.	.	(8qb-/	.
4r	4g/ 4B-/	.	(4ee-\)	.
4r	4g/ 4d/ 4B-/	.	4dd\)	.
=49	=49	=49	=49	=49
4C/	4r	.	(8.ee-\L	.
.	.	.	16ff\Jk)	.
4r	4g/ 4e-/ 4G/	.	4.gg\	.
4r	4g/ 4e-/ 4G/	.	.	.
.	.	.	8ee-\	.
=50	=50	=50	=50	=50
[2.D\	[2.g/ 2.d/ 2.B-/	.	(8dd\L	.
.	.	.	8bb-\)	.
.	.	.	8gg`\	.
.	.	.	8dd`\	.
.	.	.	8b-`\	.
.	.	.	8g`\J	.
=51	=51	=51	=51	=51
*	*^	*	*	*
!	!LO:TX:b:i:t=rall.:mod=rallentando	!	!	!	!
2.D\]	4g/]	2.d\ 2.c\	.	(8d/L	.
.	.	.	.	8b-/J)	.
!	!	!	!	!LO:TX:b:i:t=rall.:mod=rallentando	!
.	2f#X/	.	.	(<4.b-\	.
.	.	.	.	8a/)	.
*	*v	*v	*	*	*
=52	=52	=52	=52	=52
2.GG;/	2.g/ 2.d/ 2.B-;/	.	2.g;/	.
!!LO:LB:g=original
=53||	=53||	=53||	=53||	=53||
*k[f#]	*k[f#]	*	*k[f#]	*
!!LO:TX:B:=:mod=Maggiore
!!LO:TX:B:t=:mod=Viguroso
*xywh-#3:173,2481,2782,496	*xywh-#3:173,2481,2782,496	*	*xywh-#3:179,2185,2835,337	*
!	!	!	!LO:TX:B:t=MAGGIORE.:mod=	!
!	!LO:TX:B:t=Viguroso.:mod=	!	!LO:TX:a:t=Viguroso.:mod=	!
4GG/ 4GGG/	4r	f	(8.b/L 8.d/ 8.G/	ff
.	.	.	16cc/Jk 16d/ 16G'/)	.
4r	4g/ 4d/ 4B/	.	2b/ 2d/ 2G/	.
4r	4g/ 4d/ 4B/	.	.	.
=54	=54	=54	=54	=54
4AA/ 4AAA/	4r	.	(8.a/L 8.g/ 8.c#X/	.
.	.	.	16b/Jk 16g/ 16c#'/)	.
4r	4g/ 4c#X/ 4A/	.	2a/ 2g/ 2c#/	.
4r	4g/ 4c#/ 4A/	.	.	.
=55	=55	=55	=55	=55
4D/ 4DD/	4r	.	8.ff#\L 8.ccn\ 8.d\	.
.	.	.	16gg\Jk 16cc\ 16d\	.
4r	4f#/ 4d/ 4cn/ 4A/	.	4aa\ 4cc\ 4d\	.
4r	4f#/ 4d/ 4c/ 4A/	.	8.bb\L 8.cc\ 8.d\	.
.	.	.	16aa\Jk 16cc\ 16d\	.
=56	=56	=56	=56	=56
4GG/ 4GGG/	4r	.	(8aa/L 8b/ 8d/ 8G/	.
.	.	.	8gg/J 8b/)	.
.	.	.	(>8qaa/ 8qb/	.
4r	4g/ 4d/ 4B/ 4G/	.	8gg\L 8b`\)	.
.	.	.	8ff#\J 8b`\	.
4r	4g/ 4d/ 4B/ 4G/	.	4gg\ 4b^\	.
=57	=57	=57	=57	=57
4GG/ 4GGG/	4r	.	8.b/L 8.d/ 8.G/	.
.	.	.	16cc/Jk 16d/ 16G/	.
4r	4g/ 4d/ 4B/	.	2b/ 2d/ 2G/	.
4r	4g/ 4d/ 4B/	.	.	.
=58	=58	=58	=58	=58
4AA/ 4AAA/	4r	.	8.a/L 8.g/ 8.c#X/	.
.	.	.	16b/Jk 16g/ 16c#/	.
4r	4g/ 4c#X/ 4A/	.	2a/ 2g/ 2c#/	.
4r	4g/ 4c#/ 4A/	.	.	.
=59	=59	=59	=59	=59
4D/ 4DD/	4r	.	8.ff#/L 8.ccn/ 8.d/	.
.	.	.	16gg/Jk 16cc/ 16d/	.
4r	4f#/ 4d/ 4cn/ 4A/	.	4aa\ 4cc\ 4d\	.
4r	4f#/ 4d/ 4c/ 4A/	.	8bb\L 8cc\ 8d\	.
.	.	.	8aa\J 8cc\ 8d\	.
=60	=60	=60	=60	=60
4GG/ 4GGG/	4r	.	8aa/L 8b/ 8d/ 8G/	.
.	.	.	8gg/J 8b/	.
.	.	.	(>8qaa/ 8qb/	.
4r	4g/ 4d/ 4B/ 4G/	.	8gg\L 8b\)	.
.	.	.	8ff#\J 8a\	.
4r	4g/ 4d/ 4B/ 4G/	.	4gg\ 4b\	.
!!LO:LB:g=original
=61	=61	=61	=61	=61
*xywh-#3:173,3199,2788,580	*xywh-#3:173,3199,2788,580	*	*xywh-#3:168,2967,2745,237	*
4GG/ 4GGG/	4r	.	(8.b/L 8.d/ 8.G/	.
.	.	.	16cc/Jk 16d/ 16G'/)	.
4r	4g/ 4d/ 4B/	.	2b/ 2d/ 2G/	.
4r	4g/ 4d/ 4B/	.	.	.
=62	=62	=62	=62	=62
4AA/ 4AAA/	4r	.	(8.a/L 8.g/ 8.c#X/	.
.	.	.	16b/Jk 16g/ 16c#'/)	.
4r	4g/ 4c#X/ 4A/	.	2a/ 2g/ 2c#/	.
4r	4g/ 4c#/ 4A/	.	.	.
=63	=63	=63	=63	=63
4D/ 4DD/	4r	.	8.ff#\L 8.ccn\ 8.d\	.
.	.	.	16gg\Jk 16cc\ 16d\	.
4r	4f#/ 4d/ 4cn/ 4A/	.	4aa\ 4cc\ 4d\	.
4r	4f#/ 4d/ 4c/ 4A/	.	8bb\L 8cc\ 8d\	.
.	.	.	8aa\J 8cc\ 8d\	.
=64	=64	=64	=64	=64
4GG/ 4GGG/	4r	.	8aa/L 8b/ 8d/ 8G/	.
.	.	.	8gg/J 8b/	.
.	.	.	(>8qaa/ 8qb/	.
4r	4g/ 4d/ 4B/ 4G/	.	8gg\L 8b\)	.
.	.	.	8ff#\J 8b\	.
4r	4g/ 4d/ 4B/ 4G/	.	4gg\ 4b^\	.
=65	=65	=65	=65	=65
4GG/ 4GGG/	4r	.	8.b/L 8.d/ 8.G/	.
.	.	.	16cc/Jk 16d/ 16G/	.
4r	4g/ 4d/ 4B/	.	2b/ 2d/ 2G/	.
4r	4g/ 4d/ 4B/	.	.	.
=66	=66	=66	=66	=66
4AA/ 4AAA/	4r	.	8.a/L 8.g/ 8.c#X/	.
.	.	.	16b/Jk 16g/ 16c#/	.
4r	4g/ 4c#X/ 4A/	.	2a/ 2g/ 2c#/	.
4r	4g/ 4c#/ 4A/	.	.	.
=67	=67	=67	=67	=67
4D/ 4DD/	4r	.	8.ff#\L 8.ccn\ 8.d\	.
.	.	.	16gg\Jk 16cc\ 16d\	.
4r	4f#/ 4d/ 4cn/ 4A/	.	4aa\ 4cc\ 4d\	.
4r	4f#/ 4d/ 4c/ 4A/	.	8bb\L 8cc\ 8d\	.
.	.	.	8aa\J 8cc\ 8d\	.
=68	=68	=68	=68	=68
4GG/ 4GGG/	4r	.	(>8aa/L 8b/ 8d/ 8G/	.
.	.	.	8gg/J 8b/)	.
.	.	.	(>8qaa/ 8qb/	.
4r	4g/ 4d/ 4B/ 4G/	.	8gg\L 8b\)	.
.	.	.	8ff#\J 8a\	.
4r	4g/ 4d/ 4B/ 4G/	.	4gg\ 4b\	.
!!LO:PB:g=original
=69	=69	=69	=69	=69
*xywh-#4:344,443,2541,454	*xywh-#4:344,443,2541,454	*	*xywh-#4:349,140,2561,329	*
4C/ 4CC/	4r	mf	(8.c/L	mf
.	.	.	16ee'/Jk)	.
4r	4g/ 4e/ 4c/ 4G/	.	4.aa\	.
4r	4g/ 4e/ 4c/ 4G/	.	.	.
.	.	.	8gg\	.
=70	=70	=70	=70	=70
4GG/ 4GGG/	4r	.	8.ffnT\L	.
.	.	.	16ee\Jk	.
4r	4g/ 4fn/ 4B/ 4G/	.	4ff\	.
4r	4g/ 4f/ 4B/ 4G/	.	4dd\	.
=71	=71	=71	=71	=71
4BB/ 4BBB/	4r	.	(8.g'\L	.
.	.	.	16dd'\Jk)	.
4r	4g/ 4fn/ 4d/ 4G/	.	4.gg\	.
4r	4g/ 4f/ 4d/ 4G/	.	.	.
.	.	.	8ffn\	.
=72	=72	=72	=72	=72
.	.	.	(16qqee/LL	.
.	.	.	16qqffn/JJ	.
4C/ 4CC/	4r	.	8.ee\L)	.
.	.	.	16dd#X\Jk	.
4r	4g/ 4e/ 4c/ 4G/	.	4ee\	.
4r	4g/ 4e/ 4c/ 4G/	.	4cc\	.
=73	=73	=73	=73	=73
4E/ 4EE/	4r	.	8.eee\L	.
.	.	.	16ddd\Jk	.
4r	4g/ 4c/ 4G/	.	4.ccc\	.
4r	4g#X/ 4c/ 4G#X/	.	.	.
.	.	.	(8gg#X\	.
=74	=74	=74	=74	=74
4Fn/ 4FFn/	4r	.	8bb\L	.
.	.	.	8aa\)	.
4r	4a/ 4fn/ 4d/ 4A/	.	8ggn`\	.
.	.	.	8ffn`\	.
4r	4a/ 4f/ 4d/ 4A/	.	8ee`\	.
.	.	.	8dd`\J	.
=75	=75	=75	=75	=75
4G/ 4GG/	4r	.	8.ccT\L	.
.	.	.	16b\Jk	.
4r	4g/ 4fn/ 4d/ 4B/	.	(4.aa\	.
4r	4g/ 4f/ 4d/ 4B/	.	.	.
.	.	.	8gg\)	.
=76	=76	=76	=76	=76
4c\ 4C\	4r	>	2ffn\	>
4r	4g/ 4c/ 4G/	.	.	.
4r	4g/ 4c/ 4G/	]	4ee\	]
!!LO:LB:g=original
=77	=77	=77	=77	=77
*xywh-#4:385,1060,2509,517	*xywh-#4:385,1060,2509,517	*	*xywh-#4:354,882,2598,224	*
!LO:MO:mod=!LO&colon;TX&colon;i&colon;t=cantabile	!	!	!LO:TX:b:i:t=cantabile	!
!null	!	!	!	!
4C/ 4CC/	4r	p	(8.c/L	p
.	.	.	16ee'/Jk)	.
4r	4g/ 4e/ 4c/ 4G/	.	4.aa\	.
4r	4g/ 4e/ 4c/ 4G/	.	.	.
.	.	.	8gg\	.
=78	=78	=78	=78	=78
.	.	.	(16qqffn/LL	.
.	.	.	16qqgg/JJ	.
4GG/ 4GGG/	4r	.	8.ffny\L)	.
.	.	.	16ee\Jk	.
4fn\ 4B\ 4G\	4r	.	4ff\	.
4f\ 4B\ 4G\	8.g\L	.	4dd\	.
.	16dd\Jk	.	.	.
=79	=79	=79	=79	=79
.	(16qqgg/LL	.	.	.
.	16qqaa/JJ	.	.	.
4GG/ 4GGG/	8.gg\L)	.	8.fn/L 8.G/	.
.	16ffn\Jk	.	16b/Jk	.
4fn\ 4B\ 4G\	4ee\	.	4gg\	.
4f\ 4B\ 4G\	4dd\	.	4ffn\	.
=80	=80	=80	=80	=80
.	(16qqcc/LL	.	(16qqee/LL	.
.	16qqdd/JJ	.	16qqffn/JJ	.
4C/ 4CC/	8.cc\L)	.	8.ee\L)	.
.	16b\Jk	.	16dd#X\Jk	.
4e\ 4c\ 4G\	4cc\	.	4ee\	.
4e\ 4c\ 4G\	4r	.	4cc\	.
=81	=81	=81	=81	=81
.	.	.	(8qcc/	.
4E/ 4EE/	4r	.	8.eee\L)	.
.	.	.	16ddd\Jk	.
4r	4g/ 4c/ 4G/	.	4ccc\	.
4r	4g#X/ 4c/ 4G#X/	.	(4gg#X\	.
=82	=82	=82	=82	=82
*^	*^	*	*	*
2.Fn\ 2.FFn\	2ryy	2a/ 2A</	8r	.	8bb\L	.
.	.	.	8cn\L	.	8aa\)	.
.	.	.	8c#X\	.	8ggn`\	.
.	.	.	8d\	.	8ffn`\	.
.	4A-X/	4a-X/	8e\	.	8ee`\	.
.	.	.	8fn\J	.	8dd`\J	.
*v	*v	*	*	*	*	*
*	*v	*v	*	*	*
=83	=83	=83	=83	=83
4G/ 4GG/	4r	.	8.ccT\L	.
.	.	.	16b\Jk	.
!	!LO:TX:i:t=rall.:mod=rallentando	!	!	!
4r	4g/ 4fn/ 4B/ 4G/	.	(4.aa;\	.
4r	4g/ 4f/ 4B/ 4G/	.	.	.
.	.	.	8b\)	.
=84	=84	=84	=84	=84
!	!	!LO:MO:null:mod=<	!	!
4C/ 4CC/	4cc/: 4g/: 4e/: 4c:/	.	2.cc\	<[
4C/ 4CC/	4ccc\: 4gg\: 4ee\: 4cc:\	.	.	.
!	!	!LO:MO:null:mod=[	!	!
4r	4r	.	.	.
!!LO:LB:g=original
=85	=85	=85	=85	=85
*xywh-#4:364,1797,2514,496	*xywh-#4:364,1797,2514,496	*	*xywh-#4:333,1578,2577,261	*
4GG/ 4GGG/	4r	f	(8.b/L 8.d/ 8.G'^^/	f
.	.	.	16cc/Jk 16d/ 16G'/)	.
4r	4g/ 4d/ 4B/	.	2b/ 2d/ 2G/	.
4r	4g/ 4d/ 4B/	.	.	.
=86	=86	=86	=86	=86
4AA/ 4AAA/	4r	.	(8.a/L 8.g/ 8.c#X'/	.
.	.	.	16b/Jk 16g/ 16c#'/)	.
4r	4g/ 4c#X/ 4A/	.	2a/ 2g/ 2c#/	.
4r	4g/ 4c#/ 4A/	.	.	.
=87	=87	=87	=87	=87
4D/ 4DD/	4r	.	8.ff#\L 8.ccn\ 8.d\	.
.	.	.	16gg\Jk 16cc\ 16d\	.
4r	4f#/ 4d/ 4cn/ 4A/	.	4aa\ 4cc\ 4d\	.
4r	4f#/ 4d/ 4c/ 4A/	.	8bb\L 8cc\ 8d\	.
.	.	.	8aa\J 8cc\ 8d\	.
=88	=88	=88	=88	=88
4GG/ 4GGG/	4r	.	8aa/L 8b/ 8d/ 8G/	.
.	.	.	8gg/J 8b/	.
.	.	.	(>8qaa/ 8qb/	.
4r	4g/ 4d/ 4B/ 4G/	.	8gg\L 8b`\)	.
.	.	.	8ff#\J 8b`\	.
4r	4g/ 4d/ 4B/ 4G/	.	4gg\ 4b\	.
=89	=89	=89	=89	=89
4GG/ 4GGG/	4r	.	8.b/L 8.d/ 8.G/	.
.	.	.	16cc/Jk 16d/ 16G/	.
4r	4g/ 4d/ 4B/	.	2b/ 2d/ 2G/	.
4r	4g/ 4d/ 4B/	.	.	.
=90	=90	=90	=90	=90
4AA/ 4AAA/	4r	.	8.a/L 8.g/ 8.c#X/	.
.	.	.	16b/Jk 16g/ 16c#/	.
4r	4g/ 4c#X/ 4A/	.	2a/ 2g/ 2c#/	.
4r	4g/ 4c#/ 4A/	.	.	.
=91	=91	=91	=91	=91
4D/ 4DD/	4r	.	8.ff#\L 8.cc\ 8.d\	.
.	.	.	16gg\Jk 16cc\ 16d\	.
4r	4f#/ 4d/ 4cn/ 4A/	.	4aa\ 4cc\ 4d\	.
4r	4f#/ 4d/ 4c/ 4A/	.	8bb\L 8cc\ 8d\	.
.	.	.	8aa\J 8cc\ 8d\	.
=92	=92	=92	=92	=92
4GG/ 4GGG/	4r	.	8aa/L 8b/ 8d/ 8G/	.
!	!	!	!	!LO:MO:mod=<
.	.	.	8gg/J 8b/	.
.	.	.	(>8qaa/ 8qb/	.
4r	4g/ 4d/ 4B/	>	8gg/L 8b\)	.
.	.	.	8ff#/J 8b\	.
!	!	!	!	!LO:MO:mod=!null:null
4r	4g/ 4d/ 4B;/	.	8gg/L 8b/	>
.	.	]	8G;/J	]
!!LO:LB:g=original
=93||	=93||	=93||	=93||	=93||
*k[b-e-]	*k[b-e-]	*	*k[b-e-]	*
*xywh-#4:328,2498,2635,454	*xywh-#4:328,2498,2635,454	*	*xywh-#4:349,2242,2535,298	*
.	.	.	(16qqc/LL	mf
!	!	!	!LO:TX:B:t=MINORE.:mod=	!
!	!LO:TX:B:t=Tempo I.:mod=	!	!LO:TX:a:t=Tempo I:mod=	!
!!LO:TX:B:t=:mod=Tempo I \nMinore
.	.	.	16qqg/JJ	.
4C/ 4CC/	4r	mf	(8.ee-\L)	.
.	.	.	16ff\Jk)	.
4r	4g/ 4e-/ 4G/	.	4.gg\	.
4r	4g/ 4e-/ 4G/	.	.	.
.	.	.	8ee-\	.
=94	=94	=94	=94	=94
.	.	.	(16qqdd/LL	.
.	.	.	16qqee-/JJ	.
4GG/	4r	.	8.dd\L)	.
.	.	.	16cc#X\Jk	.
4r	4g/ 4d/ 4B-/	.	4dd\	.
4r	4g/ 4d/ 4B-/	.	4b-\	.
=95	=95	=95	=95	=95
.	.	.	(16qqb-/LL	.
.	.	.	16qqdd/JJ	.
4D\	4r	.	8.ccn\L)	.
.	.	.	16bn\Jk	.
4r	4f#X/ 4d/ 4c/	.	4cc\	.
4r	4f#/ 4d/ 4c/	.	4a/	.
=96	=96	=96	=96	=96
4GG/	4r	.	8.g/L	.
.	.	.	16b-X/Jk	.
4r	4g/ 4B-/	.	4ee-\	.
4r	4g/ 4d/ 4B-/	.	4dd\	.
=97	=97	=97	=97	=97
4C/	4r	.	8.ee-\L	.
.	.	.	16ff\Jk	.
4r	4g/ 4e-/ 4G/	.	4.gg\	.
4r	4g/ 4e-/ 4G/	.	.	.
.	.	.	8ee-\	.
=98	=98	=98	=98	=98
.	.	.	(16qqdd/LL	.
.	.	.	16qqee-/JJ	.
4GG/	4r	.	8.dd\L)	.
.	.	.	16cc#X\Jk	.
4r	4g/ 4d/ 4B-/	.	4dd\	.
4r	4g/ 4d/ 4B-/	.	4b-\	.
=99	=99	=99	=99	=99
4AA/	4r	.	8.g#X/L	.
.	.	.	16a/Jk	.
4r	4f/ 4d/ 4A/	.	(4ff\	.
4r	4g/ 4c#X/ 4A/	.	4een\)	.
=100	=100	=100	=100	=100
2.D\	2.f/ 2.d/ 2.A/	.	2.dd\	.
!!LO:LB:g=original
=101	=101	=101	=101	=101
*xywh-#4:312,3131,2671,491	*xywh-#4:312,3131,2671,491	*	*xywh-#4:354,2953,2666,182	*
*ped	*	*	*	*
2.AA/ 2.DD/	4r	pp	(8.dd#X\L	pp
.	.	.	16een\Jk)	.
.	4g/ 4c#X/ 4A/	.	4.aa\	.
.	4g/ 4c#/ 4A/	.	.	.
.	.	.	8gg\	.
=102	=102	=102	=102	=102
.	.	.	(16qqff/LL	.
.	.	.	16qqgg/JJ	.
2.AA/ 2.DD/	4r	.	8.ff\L)	.
.	.	.	16een\Jk	.
.	4f/ 4d/ 4A/	.	4ff\	.
.	4f/ 4d/ 4A/	.	4dd\	.
=103	=103	=103	=103	=103
.	.	.	(16qqcc#X/LL	.
.	.	.	16qqdd/JJ	.
2.AA/ 2.DD/	4r	.	8.cc#y\L)	.
.	.	.	16bn\Jk	.
.	4g/ 4en/ 4c#X/ 4A/	.	4cc#\	.
.	4g/ 4e/ 4c#/ 4A/	.	4a/	.
=104	=104	=104	=104	=104
2.AA/ 2.DD/	4r	.	8.dd\L	.
.	.	.	16ff\Jk	.
.	4f/ 4d/ 4A/	.	4bb-\	.
.	4f/ 4d/ 4A/	.	4aa\	.
=105	=105	=105	=105	=105
2.AA/ 2.DD/	4r	.	8.dd#X\L	.
.	.	.	16een\Jk	.
.	.	.	(8qff/	.
.	4g/ 4c#X/ 4A/	.	4.aa\)	.
.	4g/ 4c#/ 4A/	.	.	.
.	.	.	8gg\	.
=106	=106	=106	=106	=106
*	*^	*	*	*
.	.	.	.	(16qqff/LL	.
.	.	.	.	16qqgg/JJ	.
2.AA/ 2.DD/	8.f/L	4r	.	8.ff\L)	.
.	16g/Jk	.	.	16een\Jk	.
.	4.a/	4f\ 4d\ 4A\	.	4ff\	.
.	.	4f\ 4d\ 4A\	.	4dd\	.
.	8f/	.	.	.	.
*	*v	*v	*	*	*
=107	=107	=107	=107	=107
.	.	.	(16qqcc#X/LL	.
.	.	.	16qqdd/JJ	.
2.AA/ 2.DD/	8.en/L	.	8.cc#y\L)	.
.	16d/Jk	.	16bn\Jk	.
.	4e/ 4A/ 4G/	.	4cc#\	.
.	4g/ 4c#X/ 4A/	.	4a/	.
=108	=108	=108	=108	=108
4AA/ 4DD/	8f/L 8d/ 8A/	<	2.dd\	<
.	(8d/	.	.	.
4r	8en/	.	.	.
.	8f/	.	.	.
4r	8g/	.	.	.
.	8g#X/J)	[	.	.
!!LO:PB:g=original
=109	=109	=109	=109	=109
*	*^	*	*	*
*xywh-#5:118,567,2690,510	*xywh-#5:118,567,2690,510	*xywh-#5:118,567,2690,510	*	*xywh-#5:139,186,2586,385	*
2.C#X^>/	2.a^/	4r	.	(16dd#X\LL	.
.	.	.	.	16een\	.
.	.	.	.	16dd#\	.
.	.	.	.	16ee\JJ)	.
.	.	4g\ 4en\ 4A\	.	(4.aa\	.
.	.	4g\ 4e\ 4A\	.	.	.
.	.	.	.	8gg\)	[
=110	=110	=110	=110	=110	=110
.	.	.	.	(16qqff/LL	mf
.	.	.	.	16qqgg/JJ	.
2.D^\	2.a^/	4r	mf	8.ff\L)	.
.	.	.	.	16een\Jk	.
.	.	4f\ 4d\ 4A\	.	4ff\	.
.	.	4f\ 4d\ 4A\	.	4dd\	.
=111	=111	=111	=111	=111	=111
.	.	.	.	(16qqcc#X/LL	.
.	.	.	.	16qqdd/JJ	.
2.En^\	2.a^/	4r	.	8.cc#y\L)	.
.	.	.	.	16bn\Jk	.
.	.	4g\ 4c#X\ 4A\	.	4cc#\	.
.	.	4g\ 4c#\ 4A\	.	4a/	.
=112	=112	=112	=112	=112	=112
2.F^\	2.a^/	4r	.	8.dd\L	.
.	.	.	.	16ff\Jk	.
.	.	4f\ 4d\ 4A\	.	4bb-\	.
.	.	4f\ 4d\ 4A\	.	4aa\	.
=113	=113	=113	=113	=113	=113
2.G^\	2.b-X^/	4r	.	8.dd#X\L	.
.	.	.	.	16een\Jk	.
.	.	4en\ 4d\	.	4.aa\	.
.	.	4e\ 4d\	.	.	.
.	.	.	.	8gg\	.
=114	=114	=114	=114	=114	=114
.	.	.	.	(16qqff/LL	.
.	.	.	.	16qqgg/JJ	.
2.A^\	2.a^/	4r	.	8.ff\L)	.
.	.	.	.	16een\Jk	.
.	.	4f\ 4d\	.	4ff\	.
.	.	4f\ 4d\	.	4dd\	.
!!LO:LB:g=original
=115	=115	=115	=115	=115	=115
*xywh-#5:118,1385,2706,510	*xywh-#5:118,1385,2706,510	*xywh-#5:118,1385,2706,510	*	*xywh-#5:217,1145,2607,255	*
.	.	.	.	(16qqcc#X/LL	.
.	.	.	.	16qqdd/JJ)	.
2.AA/	2.a/	4r	.	8.cc#\L	.
.	.	.	.	16bn\Jk	.
.	.	4g\ 4en\ 4c#X\ 4A\	.	4cc#\	.
.	.	4g\ 4e\ 4c#\ 4A\	.	4a/	.
*	*v	*v	*	*	*
=116	=116	=116	=116	=116
4D\	4a/ 4f#X/ 4d/ 4A/	.	8.dd\L	.
.	.	.	16ee-X\Jk	.
4r	4r	.	4gg\	.
4r	4r	.	8ff#X\L	.
.	.	.	8ee-\J	.
=117	=117	=117	=117	=117
2.r	2.r	.	8.dd\L	.
.	.	.	16ee-\Jk	.
.	.	.	4gg\	.
.	.	.	8ff#X\L	.
.	.	.	8ee-\J	.
=118	=118	=118	=118	=118
2.r	2.r	.	8dd\L	.
.	.	.	8ee-\J	.
.	.	.	8gg\L	.
.	.	.	8ff#X\J	.
!	!	!	!LO:TX:i:t=pressez un peu:dur=10q:ext=ud:problem:text with extension lines:mod=	!
.	.	.	8ee-\L	.
.	.	.	8dd\J	.
=119	=119	=119	=119	=119
2.r	2.r	.	8ee-\L	.
.	.	.	8gg\J	.
.	.	.	8ff#X\L	.
.	.	.	8ee-\J	.
.	.	.	8dd\L	.
.	.	.	8ee-\J	.
=120	=120	=120	=120	=120
2.r	2.r	.	8gg\L	.
.	.	.	8ff#X\J	.
.	.	.	8ee-\L	.
.	.	.	8dd\J	.
.	.	.	8ee-\L	.
.	.	.	8gg\J	.
=121	=121	=121	=121	=121
2.r	2.r	.	8ff#X\L	>
.	.	.	8ee-\J	.
.	.	.	8dd\L	.
.	.	.	8cc#X\J	.
.	.	.	8.dd\L	.
.	.	.	16dd\Jk	]
!!LO:LB:g=original
=122	=122	=122	=122	=122
*xywh-#5:118,2188,2721,526	*xywh-#5:118,2188,2721,526	*	*xywh-#5:128,1928,2690,286	*
!	!LO:TX:i:t=a tempo:mod=	!	!LO:TX:i:t=a :mod=	!
!!LO:TX:B:t=:mod=a tempo
4C/	4r	p	8.ee-\L	p
.	.	.	16ffn\Jk	.
4r	4g/ 4e-/ 4G/	.	4.gg\	.
4r	4g/ 4e-/ 4G/	.	.	.
.	.	.	8ee-\	.
=123	=123	=123	=123	=123
.	.	.	(16qqdd/LL	.
.	.	.	16qqee-/JJ	.
4GG/	4r	.	8.dd\L)	.
.	.	.	16cc#X\Jk	.
4r	4g/ 4d/ 4B-/	.	4dd\	.
4r	4g/ 4d/ 4B-/	.	4b-\	.
=124	=124	=124	=124	=124
.	.	.	(16qqcc/LL	.
.	.	.	16qqdd/JJ	.
4D\	4r	.	8.cc\L)	.
.	.	.	16bn\Jk	.
4r	4f#X/ 4d/ 4c/	.	4cc\	.
4r	4f#/ 4d/ 4c/	.	4a/	.
=125	=125	=125	=125	=125
4GG/	4r	.	8.g/L	.
.	.	.	16b-/Jk	.
.	.	.	(8qb-/	.
4r	4g/ 4B-/	.	4ee-\)	.
4r	4g/ 4d/ 4B-/	.	4dd\	.
=126	=126	=126	=126	=126
4C/	4r	.	8.ee-\L	.
.	.	.	16ff\Jk	.
4r	4g/ 4e-/ 4G/	.	4.gg\	.
4r	4g/ 4e-/ 4G/	.	.	.
.	.	.	8ee-\	.
=127	=127	=127	=127	=127
*	*^	*	*	*
!	!	!	!LO:MO:null:mod=<	!	!
[2.D\	[2.g/	2.d\ 2.B-\	.	(8dd\L	<
.	.	.	.	8bb-\)	.
.	.	.	.	8gg`\	.
.	.	.	.	8dd`\	.
.	.	.	.	8b-`\	.
!	!	!	!LO:MO:null:mod=[	!	!
.	.	.	.	8g`\J	[
!!LO:LB:g=original
=128	=128	=128	=128	=128	=128
*xywh-#5:139,3012,2721,928	*xywh-#5:139,3012,2721,928	*xywh-#5:139,3012,2721,928	*	*xywh-#5:139,2762,2633,271	*
2.D\_	4g/]	2.d\ 2.c\	>	(8d/L	>
.	.	.	.	8b-/J)	.
.	2f#X;/	.	.	(<4.b-;\	.
.	.	.	]]	8a/)	.
=129	=129	=129	=129	=129	=129
2.D\] [2.GG\	4g/ [4B-/	4ryy	p	4g/	]
!	!	!	!	!LO:TX:a:t=morendo:mod=	!
!!LO:TX:B:t=:mod=morendo
.	2d/	8B-</L]	.	(8d/L 8G/	p
.	.	8F#X</	.	8d/ 8A/	.
.	.	.	.	(8qc/	.
.	.	8G</	.	8d/ 8B-/)	.
.	.	8c</J	.	8d/J 8A/)	.
=130	=130	=130	=130	=130	=130
*^	*	*	*	*	*
[<2.D\	8GG\L]	[>2.d/	4.B-</	.	4d/ 4G'/	.
.	8FF#X\J	.	.	.	.	.
.	[2GG\	.	.	.	(8d/L 8G/	.
.	.	.	(8F#X</L	.	8d/ 8A/	.
.	.	.	.	.	(8qc/	.
.	.	.	8G</	.	8d/ 8B-/)	.
.	.	.	8c</J	.	8d/J 8A/)	.
*v	*v	*	*	*	*	*
=131	=131	=131	=131	=131	=131
2.D\_ 2.GG\_	2.d/_>	8B-</L	.	(8d/L 8G/	.
.	.	8F#X</	.	8d/ 8A/	.
.	.	.	.	(8qc/	.
.	.	8G</	.	8d/ 8B-/)	.
.	.	8c</	.	8d/ 8A/	.
.	.	8B-</	.	8d/ 8G/	.
.	.	8F#</J	.	8d/J 8A/)	.
=132	=132	=132	=132	=132	=132
.	.	.	.	(8qc/	.
2.D\] 2.GG\]	2.d/]	8G</L	.	(8d/L 8B-/)	.
.	.	8c</	.	8d/ 8A/	.
.	.	8B-</	.	8d/ 8G/	.
.	.	8F#X</	.	8d/ 8A/	.
.	.	.	.	(8qc/	.
.	.	8G</	.	8d/ 8B-/)	.
.	.	8c</J)	.	8d/J 8A/)	.
*	*v	*v	*	*	*
=133	=133	=133	=133	=133
!	!	!LO:MO:null:mod=!LO&colon;DY&colon;ed=brack	!	!
!	!	!	!	!
!	!	!LO:MO:null:mod=pp	!	!
2D\ 2GG;<\	2d/ 2Bn<;/	.	(4G/	pp
!	!	!	!LO:TX:t=P:problem:nie wyświetla się fermata:mod=	!
!	!	!	!LO:MO:mod=!null:null	!
!	!	!	!LO:N:n=2:vis=2	!
.	.	.	4ggoy/; 4rGyy/ 4rc/)	.
4r	4r	.	4r	.
==	==	==	==	==
*-	*-	*-	*-	*-
!!!system-decoration: (s1){(s2,s3)}
!!!RDF**kern: > = above
!!!RDF**kern: < = below
!!!filter-modern: autostem -r | shed -k -e “s/([()[]_])[><]/$1/g” | shed -e "s/LO:DY:(a|b|rj)/LO:dy:$1/L" | modori -m
!!!ENC: Berenika Jozajtis
!!!END: 2022-05-05
!!!EED: Andrzej Borzym
!!!EEV: 2022-05-22
!!!ENC-modern: Leszek Kubiak
!!!END-modern: 2022-07-19
!!!IIIF: https://polona.pl/iiif/item/NjgxNzcxMzA/manifest.json
!!!ENC-iiif: Jan Barakat
!!!END-iiif: 2022-08-30
!!!YEC: Copyright 2022 Narodowy Instytut Fryderyka Chopina (https://polishscores.org)
!!!YEM: License CC-BY-4.0 (https://creativecommons.org/licenses/by/4.0)
